src/icons/switch-items.svg

<svg width="24" height="24" viewBox="0 0 24 24" fill="none" xmlns="http://www.w3.org/2000/svg">
<path d="M16.7504 20.1824L15 21.415V21.3572L16.5563 20.3155C19.2333 18.5235 20.9995 15.4689 21 12.0014C20.9995 15.3821 19.3224 18.3712 16.7504 20.1824ZM9 2.64281L7.44374 3.68454C4.76647 5.47664 3.00024 8.53149 3 11.9993C3.00024 8.6183 4.67741 5.62895 7.2496 3.81762L9 2.58498V2.64281ZM15 2H21V7H15V2ZM3 22V17H9V22H3Z" stroke="black" stroke-width="2"/>
</svg>

<svg xmlns="http://www.w3.org/2000/svg" width="24" height="24" fill="none"><path stroke="currentColor" stroke-width="2" d="M16.75 20.182 15 21.415v-.058l1.556-1.041zM9 2.642 7.444 3.686l-.194.133L9 2.585zM15 2h6v5h-6zM3 22v-5h6v5z"/></svg>
